public/images/hashed/7f27f47241e07bc2b8c6f8c727cf5998.svg

<?xml version="1.0" encoding="UTF-8"?>
<svg width="80px" height="80px" viewBox="0 0 80 80" version="1.1" xmlns="http://www.w3.org/2000/svg" xmlns:xlink="http://www.w3.org/1999/xlink">
    <!-- Generator: Sketch 64 (93537) - https://sketch.com -->
    <title>Icon-Architecture/64/Arch_AWS-Training-Certification_64</title>
    <desc>Created with Sketch.</desc>
    <defs>
        <linearGradient x1="0%" y1="100%" x2="100%" y2="0%" id="linearGradient-1">
            <stop stop-color="#2E27AD" offset="0%"></stop>
            <stop stop-color="#527FFF" offset="100%"></stop>
        </linearGradient>
    </defs>
    <g id="Icon-Architecture/64/Arch_AWS-Training-Certification_64" stroke="none" stroke-width="1" fill="none" fill-rule="evenodd">
        <g id="Icon-Architecture-BG/64/Customer-Enablement" fill="url(#linearGradient-1)">
            <rect id="Rectangle" x="0" y="0" width="80" height="80"></rect>
        </g>
        <path d="M65.5,37.6685 L54.5,31.3175 C54.191,31.1405 53.809,31.1405 53.5,31.3175 L42.5,37.6685 C42.19,37.8475 42,38.1775 42,38.5345 L42,48.5815 L44,47.4265 L44,39.1115 L54,33.3385 L64,39.1115 L64,50.6595 L54,56.4335 L47.201,52.5075 L45.201,53.6625 L53.5,58.4535 C53.654,58.5425 53.827,58.5875 54,58.5875 C54.173,58.5875 54.346,58.5425 54.5,58.4535 L65.5,52.1035 C65.81,51.9245 66,51.5945 66,51.2365 L66,38.5345 C66,38.1775 65.81,37.8475 65.5,37.6685 L65.5,37.6685 Z M23,39.7815 C23,36.1975 25.916,33.2815 29.5,33.2815 C33.084,33.2815 36,36.1975 36,39.7815 C36,43.3655 33.084,46.2815 29.5,46.2815 C25.916,46.2815 23,43.3655 23,39.7815 L23,39.7815 Z M65,25.9645 L16,25.9645 C15.447,26.2815 15,26.7295 15,27.2815 L15,54.8025 C15,55.1605 15.192,55.4925 15.504,55.6705 L36.78,67.8325 C36.934,67.9205 37.105,67.9645 37.276,67.9645 C37.447,67.9645 37.619,67.9205 37.772,67.8325 L51.828,59.7985 L49.824,58.6405 L45.609,61.0495 C45.316,59.0885 44.69,57.1785 43.724,55.3995 L43.298,54.7615 L41.565,55.7615 L42.013,56.4315 C42.958,58.1775 43.536,60.1225 43.727,62.1255 L37.276,65.8135 L17.84,54.7025 C20.576,51.0825 24.889,48.9215 29.498,48.9215 C32.14,48.9215 34.708,49.6485 36.931,51.0255 L37.275,51.3095 L39.126,50.2405 L38.149,49.4395 C38.116,49.4115 38.081,49.3865 38.045,49.3635 C36.574,48.4435 34.967,47.7815 33.29,47.3785 C36.077,45.9815 38,43.1055 38,39.7815 C38,35.0955 34.187,31.2815 29.5,31.2815 C24.813,31.2815 21,35.0955 21,39.7815 C21,43.0945 22.909,45.9625 25.682,47.3645 C22.324,48.1495 19.28,49.9555 17,52.5465 L17,27.9645 L64,27.9645 L64,32.9645 L66,34.1195 L66,27.2815 C66,26.7295 65.553,26.2815 65,25.9645 L65,25.9645 Z M20.017,23.9645 L37.009,14.1535 L54,23.9645 L58,23.9645 L37.509,12.1335 C37.2,11.9555 36.817,11.9555 36.509,12.1335 L16.016,23.9645 L20.017,23.9645 Z M33.591,58.0565 L32.591,56.3235 L51.827,45.2175 L52.827,46.9495 L33.591,58.0565 Z" id="AWS-Training-Certification_Icon_64_Squid" fill="#FFFFFF"></path>
    </g>
</svg>

<svg xmlns="http://www.w3.org/2000/svg" width="80" height="80"><defs><linearGradient id="a" x1="0%" x2="100%" y1="100%" y2="0%"><stop offset="0%" stop-color="#2E27AD"/><stop offset="100%" stop-color="#527FFF"/></linearGradient></defs><g fill="none" fill-rule="evenodd"><path fill="url(#a)" d="M0 0h80v80H0z"/><path fill="#FFF" d="m65.5 37.669-11-6.351a1.008 1.008 0 0 0-1 0l-11 6.35a1 1 0 0 0-.5.867v10.047l2-1.156v-8.315l10-5.772 10 5.773v11.547l-10 5.775-6.799-3.926-2 1.154 8.299 4.791a1 1 0 0 0 1 0l11-6.35a1 1 0 0 0 .5-.867V38.535a1 1 0 0 0-.5-.866ZM23 39.782c0-3.584 2.916-6.5 6.5-6.5s6.5 2.916 6.5 6.5-2.916 6.5-6.5 6.5a6.508 6.508 0 0 1-6.5-6.5Zm42-13.817H16c-.553.317-1 .765-1 1.317v27.52a1 1 0 0 0 .504.868L36.78 67.832a.999.999 0 0 0 .992 0L51.828 59.8l-2.004-1.158-4.215 2.409a17.12 17.12 0 0 0-1.885-5.65l-.426-.639-1.733 1 .448.67a14.955 14.955 0 0 1 1.714 5.695l-6.451 3.688L17.84 54.703a14.614 14.614 0 0 1 11.658-5.782c2.642 0 5.21.727 7.433 2.105l.344.283 1.851-1.069-.977-.8a.953.953 0 0 0-.104-.076 16.009 16.009 0 0 0-4.755-1.985C36.077 45.98 38 43.106 38 39.782c0-4.686-3.813-8.5-8.5-8.5-4.687 0-8.5 3.814-8.5 8.5 0 3.313 1.909 6.18 4.682 7.583A16.596 16.596 0 0 0 17 52.545V27.966h47v5l2 1.154v-6.837c0-.552-.447-1-1-1.317Zm-44.983-2 16.992-9.812L54 23.965h4L37.509 12.133a1.003 1.003 0 0 0-1 0L16.016 23.965h4.001Zm13.574 34.091-1-1.732 19.236-11.106 1 1.731-19.236 11.108Z"/></g></svg>
